!!!OTL: DER RITTER MUSS ZUM BLUTGEN KAMPF
!!!ARE: Europa, Mitteleuropa, Deutschland; France
!!!SCT: B0715
!!!YEM: Copyright 1995, estate of Helmut Schaffrath.
**kern
*ICvox
*Ivox
*M4/4
*k[b-e-]
*B-:
{8b-
8.cc
16dd
=1
4.f
8g
8.f
16e-
8.c
16d
=2
2B-
8r}
{8f
8.b-
16b-
=3
4.dd
8cc
8.b-
16cc
8.dd
16ee-
=4
4cc
4f
8r}
{8b-
8.cc
16dd
=5
4.en
8g
8.f
16en
8.d
16c
=6
8.f}
{16g
8.a
16b-
8.cc
16dd
8.cc
16b-
=7
4a
8b-
8g
4f
8a
8g
=8
4f
4.r}
{8f
8.cc
16b-
=9
4.a
8g
8f
8ee-
8dd
8cc
=10
2b-
8r}
{8g
8.dd
16cc
=11
4.b-
8b-
8cc
8dd
8cc
8b-
=12
4cc
4f
2r}
=13
{4dd
8.ee-
16dd
8.cc
16cc
8.ff
16a
=14
8.b-
16b-
8.cc
16b-
8.a
16a
8.dd
16f#
=15
8.g}
{16b-
8.a
16g
8f
8b-
8a
8b-
=16
4cc
4f
4dd
4r}
=17
{4dd
8.ee-
16dd
8.cc
16cc
8.ff
16a
=18
8.b-
16b-
8.cc
16b-
8.a
16a
8.dd
16f#
=19
8.g}
{16b-
8.a
16g
8f
8b-
8a
8b-
=20
4cc
4a
8.dd
16ee-
8.g
16cc
=21
4b-
8dd
8cc
4b-
4r}
==
!!!AGN: Kriegs -, Helden - Lied
!!!ONB: ESAC (Essen Associative Code) Database: BOEHME
!!!AMT: simple quadruple
!!!AIN: vox
!!!EED: Helmut Schaffrath
!!!EEV: 1.0
*-
